X: 9747
T: Delaney's
R: jig
M: 6/8
K: Gmajor
|:B|A2 A DFA|ded dcA|GEE cEE|GEG c3|
A2 A DFA|d/^c/dd d=cA|GEE cEE|DFd d2 e|
fdd Add|fdd b3|faa e/f/ed|^cAG A3|
f/a/ff ege|d/^c/dd =cAG|A2 A cGE|DED D2:|

